images/global/icons/utility/collection-multi.svg

<svg id="icon_x2F_Utility_x2F_collection-multi-Layer_1" xmlns="http://www.w3.org/2000/svg" viewBox="0 0 48 48" enable-background="new 0 0 48 48"><title>icon/Utility/collection-multi</title><g id="icon_x2F_Utility_x2F_collection-multi-Symbols"><g id="icon_x2F_Utility_x2F_collection-multi"><g id="icon_x2F_Utility_x2F_collection-multi-Icon" transform="translate(11 12)"><g id="icon_x2F_Utility_x2F_collection-multi-Mask"><path id="icon_x2F_Utility_x2F_collection-multi-path-1_1_" d="M24.4 6H1.5C.7 6 0 6.8 0 7.6v14.7c0 .8.7 1.7 1.5 1.7h22.9c.8 0 1.6-.9 1.6-1.7V7.6c0-.8-.8-1.6-1.6-1.6zM9.1 19.5c0 .9-.4 1.2-1.3 1.2H4.2c-.9 0-1.2-.3-1.2-1.2v-9.1c0-.9.4-1.3 1.3-1.3h3.5c.9 0 1.3.3 1.3 1.3v9.1zm6.1 0c0 .9-.4 1.2-1.3 1.2h-2.8c-.9 0-1.2-.3-1.2-1.2v-2.7c0-.9.4-1.3 1.3-1.3h2.6c.9 0 1.3.3 1.3 1.3v2.7h.1zm0-6.5c0 .9-.4 1.2-1.3 1.2h-2.8c-.8 0-1.1-.2-1.1-1.2v-2.7c0-.9.4-1.3 1.3-1.3h2.6c.9 0 1.3.3 1.3 1.3V13zm7.8 6.5c0 .9-.4 1.2-1.3 1.2h-4.5c-.9 0-1.2-.3-1.2-1.2v-2.7c0-.9.4-1.3 1.3-1.3h4.3c.9 0 1.3.3 1.3 1.3l.1 2.7zm0-6.5c0 .9-.4 1.2-1.3 1.2h-4.5c-.9 0-1.2-.2-1.2-1.2v-2.7c0-.9.4-1.3 1.3-1.3h4.3c.9 0 1.3.3 1.3 1.3L23 13zm-.2-8.6H3.3c-.4 0-.7-.3-.7-.7s.3-.7.7-.7h19.5c.4 0 .6.3.6.7s-.3.7-.6.7zm-2.1-3H5.2c-.4 0-.6-.3-.6-.7s.2-.7.6-.7h15.5c.4 0 .6.3.6.7s-.2.7-.6.7z" fill="#384048"/></g><defs><filter id="icon_x2F_Utility_x2F_collection-multi-Adobe_OpacityMaskFilter" filterUnits="userSpaceOnUse" x="-11" y="-12" width="48" height="48"><feColorMatrix values="1 0 0 0 0 0 1 0 0 0 0 0 1 0 0 0 0 0 1 0"/></filter></defs><mask maskUnits="userSpaceOnUse" x="-11" y="-12" width="48" height="48" id="icon_x2F_Utility_x2F_collection-multi-mask-2"><g filter="url(#icon_x2F_Utility_x2F_collection-multi-Adobe_OpacityMaskFilter)"><path id="icon_x2F_Utility_x2F_collection-multi-path-1" d="M24.4 6H1.5C.7 6 0 6.8 0 7.6v14.7c0 .8.7 1.7 1.5 1.7h22.9c.8 0 1.6-.9 1.6-1.7V7.6c0-.8-.8-1.6-1.6-1.6zM9.1 19.5c0 .9-.4 1.2-1.3 1.2H4.2c-.9 0-1.2-.3-1.2-1.2v-9.1c0-.9.4-1.3 1.3-1.3h3.5c.9 0 1.3.3 1.3 1.3v9.1zm6.1 0c0 .9-.4 1.2-1.3 1.2h-2.8c-.9 0-1.2-.3-1.2-1.2v-2.7c0-.9.4-1.3 1.3-1.3h2.6c.9 0 1.3.3 1.3 1.3v2.7h.1zm0-6.5c0 .9-.4 1.2-1.3 1.2h-2.8c-.8 0-1.1-.2-1.1-1.2v-2.7c0-.9.4-1.3 1.3-1.3h2.6c.9 0 1.3.3 1.3 1.3V13zm7.8 6.5c0 .9-.4 1.2-1.3 1.2h-4.5c-.9 0-1.2-.3-1.2-1.2v-2.7c0-.9.4-1.3 1.3-1.3h4.3c.9 0 1.3.3 1.3 1.3l.1 2.7zm0-6.5c0 .9-.4 1.2-1.3 1.2h-4.5c-.9 0-1.2-.2-1.2-1.2v-2.7c0-.9.4-1.3 1.3-1.3h4.3c.9 0 1.3.3 1.3 1.3L23 13zm-.2-8.6H3.3c-.4 0-.7-.3-.7-.7s.3-.7.7-.7h19.5c.4 0 .6.3.6.7s-.3.7-.6.7zm-2.1-3H5.2c-.4 0-.6-.3-.6-.7s.2-.7.6-.7h15.5c.4 0 .6.3.6.7s-.2.7-.6.7z" fill="#fff"/></g></mask><g id="icon_x2F_Utility_x2F_collection-multi-Color_x2F_Grayscale_x2F_Night-Sky" mask="url(#icon_x2F_Utility_x2F_collection-multi-mask-2)"><path fill="#111" d="M0 0h48v48H0z" transform="translate(-11 -12)" id="icon_x2F_Utility_x2F_collection-multi-Swatch"/></g></g></g></g></svg>

<?xml version="1.0" encoding="utf-8"?>
<!-- Generator: Adobe Illustrator 21.0.2, SVG Export Plug-In . SVG Version: 6.00 Build 0)  -->
<svg version="1.1" id="icon_x2F_Utility_x2F_collection-multi-Layer_1" xmlns="http://www.w3.org/2000/svg" xmlns:xlink="http://www.w3.org/1999/xlink" x="0px" y="0px"
	 viewBox="0 0 48 48" style="enable-background:new 0 0 48 48;" xml:space="preserve">
<title>icon/Utility/collection-multi</title>
<desc>Created with Sketch.</desc>
<g id="icon_x2F_Utility_x2F_collection-multi-Symbols">
	<g id="icon_x2F_Utility_x2F_collection-multi">
		<g id="icon_x2F_Utility_x2F_collection-multi-Icon" transform="translate(11.000000, 12.000000)">
			<g id="icon_x2F_Utility_x2F_collection-multi-Mask">
				<path id="icon_x2F_Utility_x2F_collection-multi-path-1_1_" style="fill:#384048;" d="M24.4,6H1.5C0.7,6,0,6.8,0,7.6v14.7C0,23.1,0.7,24,1.5,24h22.9
					c0.8,0,1.6-0.9,1.6-1.7V7.6C26,6.8,25.2,6,24.4,6L24.4,6z M9.1,19.5c0,0.9-0.4,1.2-1.3,1.2H4.2c-0.9,0-1.2-0.3-1.2-1.2v-9.1
					c0-0.9,0.4-1.3,1.3-1.3h3.5c0.9,0,1.3,0.3,1.3,1.3V19.5L9.1,19.5z M15.2,19.5c0,0.9-0.4,1.2-1.3,1.2h-2.8
					c-0.9,0-1.2-0.3-1.2-1.2v-2.7c0-0.9,0.4-1.3,1.3-1.3h2.6c0.9,0,1.3,0.3,1.3,1.3V19.5L15.2,19.5z M15.2,13c0,0.9-0.4,1.2-1.3,1.2
					h-2.8C10.3,14.2,10,14,10,13v-2.7c0-0.9,0.4-1.3,1.3-1.3h2.6c0.9,0,1.3,0.3,1.3,1.3V13L15.2,13z M23,19.5c0,0.9-0.4,1.2-1.3,1.2
					h-4.5c-0.9,0-1.2-0.3-1.2-1.2v-2.7c0-0.9,0.4-1.3,1.3-1.3h4.3c0.9,0,1.3,0.3,1.3,1.3L23,19.5L23,19.5z M23,13
					c0,0.9-0.4,1.2-1.3,1.2h-4.5C16.3,14.2,16,14,16,13v-2.7c0-0.9,0.4-1.3,1.3-1.3h4.3c0.9,0,1.3,0.3,1.3,1.3L23,13z M22.8,4.4H3.3
					c-0.4,0-0.7-0.3-0.7-0.7S2.9,3,3.3,3h19.5c0.4,0,0.6,0.3,0.6,0.7S23.1,4.4,22.8,4.4z M20.7,1.4H5.2c-0.4,0-0.6-0.3-0.6-0.7
					S4.8,0,5.2,0h15.5c0.4,0,0.6,0.3,0.6,0.7S21.1,1.4,20.7,1.4z"/>
			</g>
			<defs>
				<filter id="icon_x2F_Utility_x2F_collection-multi-Adobe_OpacityMaskFilter" filterUnits="userSpaceOnUse" x="-11" y="-12" width="48" height="48">
					<feColorMatrix  type="matrix" values="1 0 0 0 0  0 1 0 0 0  0 0 1 0 0  0 0 0 1 0"/>
				</filter>
			</defs>
			<mask maskUnits="userSpaceOnUse" x="-11" y="-12" width="48" height="48" id="icon_x2F_Utility_x2F_collection-multi-mask-2">
				<g style="filter:url(#icon_x2F_Utility_x2F_collection-multi-Adobe_OpacityMaskFilter);">
					<path id="icon_x2F_Utility_x2F_collection-multi-path-1" style="fill:#FFFFFF;" d="M24.4,6H1.5C0.7,6,0,6.8,0,7.6v14.7C0,23.1,0.7,24,1.5,24h22.9
						c0.8,0,1.6-0.9,1.6-1.7V7.6C26,6.8,25.2,6,24.4,6L24.4,6z M9.1,19.5c0,0.9-0.4,1.2-1.3,1.2H4.2c-0.9,0-1.2-0.3-1.2-1.2v-9.1
						c0-0.9,0.4-1.3,1.3-1.3h3.5c0.9,0,1.3,0.3,1.3,1.3V19.5L9.1,19.5z M15.2,19.5c0,0.9-0.4,1.2-1.3,1.2h-2.8
						c-0.9,0-1.2-0.3-1.2-1.2v-2.7c0-0.9,0.4-1.3,1.3-1.3h2.6c0.9,0,1.3,0.3,1.3,1.3V19.5L15.2,19.5z M15.2,13
						c0,0.9-0.4,1.2-1.3,1.2h-2.8C10.3,14.2,10,14,10,13v-2.7c0-0.9,0.4-1.3,1.3-1.3h2.6c0.9,0,1.3,0.3,1.3,1.3V13L15.2,13z
						 M23,19.5c0,0.9-0.4,1.2-1.3,1.2h-4.5c-0.9,0-1.2-0.3-1.2-1.2v-2.7c0-0.9,0.4-1.3,1.3-1.3h4.3c0.9,0,1.3,0.3,1.3,1.3L23,19.5
						L23,19.5z M23,13c0,0.9-0.4,1.2-1.3,1.2h-4.5C16.3,14.2,16,14,16,13v-2.7c0-0.9,0.4-1.3,1.3-1.3h4.3c0.9,0,1.3,0.3,1.3,1.3
						L23,13z M22.8,4.4H3.3c-0.4,0-0.7-0.3-0.7-0.7S2.9,3,3.3,3h19.5c0.4,0,0.6,0.3,0.6,0.7S23.1,4.4,22.8,4.4z M20.7,1.4H5.2
						c-0.4,0-0.6-0.3-0.6-0.7S4.8,0,5.2,0h15.5c0.4,0,0.6,0.3,0.6,0.7S21.1,1.4,20.7,1.4z"/>
				</g>
			</mask>
			<g id="icon_x2F_Utility_x2F_collection-multi-Color_x2F_Grayscale_x2F_Night-Sky" style="mask:url(#icon_x2F_Utility_x2F_collection-multi-mask-2);">
				<g id="icon_x2F_Utility_x2F_collection-multi-Swatch" transform="translate(-11.000000, -12.000000)">
					<rect style="fill:#111111;" width="48" height="48"/>
				</g>
			</g>
		</g>
	</g>
</g>
</svg>
